icon-svg/trezor.svg

<svg xmlns="http://www.w3.org/2000/svg" fill="#44739e" viewBox="0 0 24 24"><path d="M16.88 8.172v-1.53A4.793 4.793 0 0 0 12 2a4.793 4.793 0 0 0-4.88 4.642v1.482H5.11v10.67L12 22l6.89-3.206V8.172Zm-7.272-1.53A2.266 2.266 0 0 1 12 4.489a2.266 2.266 0 0 1 2.392 2.153v1.484H9.608Zm6.506 10.43L12 18.987l-4.116-1.915v-6.411h8.23z"/></svg>

<?xml version="1.0" encoding="UTF-8"?>
<svg width="24px" fill="#44739e" height="24px" viewBox="0 0 24 24" version="1.1" xmlns="http://www.w3.org/2000/svg" xmlns:xlink="http://www.w3.org/1999/xlink">
            <path d="M 16.88,8.172 V 6.642 A 4.793,4.793 0 0 0 12,2 4.793,4.793 0 0 0 7.12,6.642 V 8.124 H 5.11 v 10.67 L 12,22 18.89,18.794 V 8.172 Z M 9.608,6.642 A 2.266,2.266 0 0 1 12,4.489 2.266,2.266 0 0 1 14.392,6.642 V 8.126 H 9.608 Z M 16.114,17.072 12,18.987 7.884,17.072 v -6.411 h 8.23 z"/>

</svg>
